public/images/amazon.svg

<svg width="123" height="38" viewBox="0 0 123 38" fill="none" xmlns="http://www.w3.org/2000/svg">
<path fill-rule="evenodd" clip-rule="evenodd" d="M76.2027 29.1751C68.4085 34.9383 57.1058 38 47.377 38C33.7373 38 21.4573 32.949 12.1631 24.5466C11.4349 23.8866 12.0838 22.9847 12.9598 23.4962C22.9871 29.341 35.3855 32.8601 48.1936 32.8601C56.8318 32.8601 66.3286 31.0633 75.0677 27.3513C76.3879 26.7903 77.4935 28.2187 76.2027 29.1751Z" fill="#343434"/>
<path fill-rule="evenodd" clip-rule="evenodd" d="M79.28 25.6345C78.3643 24.463 73.238 25.0794 70.9352 25.3558C70.2386 25.442 70.1301 24.8301 70.7589 24.386C74.8488 21.5084 81.5513 22.3399 82.3319 23.3029C83.1168 24.275 82.126 31.0064 78.2916 34.2191C77.7012 34.7132 77.1424 34.4501 77.4028 33.7978C78.2623 31.6385 80.1962 26.8079 79.28 25.6345ZM71.0958 4.05598V1.26231C71.1004 0.833803 71.4171 0.550931 71.8038 0.552837L84.318 0.550929C84.7185 0.550929 85.0397 0.84295 85.0397 1.25544V3.65492C85.0351 4.05598 84.6956 4.58132 84.0961 5.41507L77.6152 14.6844C80.02 14.6276 82.5671 14.9901 84.7523 16.2181C85.2452 16.4967 85.3788 16.9069 85.4173 17.3103V20.2942C85.4173 20.7044 84.967 21.1825 84.4943 20.9331C80.6442 18.9122 75.532 18.6923 71.2747 20.9579C70.8404 21.1889 70.3833 20.72 70.3833 20.3098V17.4735C70.3833 17.0202 70.3924 16.2432 70.8492 15.552L78.3597 4.76279H71.8198C71.4193 4.76279 71.1004 4.47495 71.0958 4.05598ZM25.451 21.5221H21.6463C21.2843 21.4974 20.9946 21.2252 20.9653 20.8786L20.9699 1.30958C20.9699 0.917671 21.2976 0.605064 21.7049 0.605064L25.2519 0.602778C25.623 0.621077 25.9192 0.902045 25.942 1.26002V3.81352H26.0143C26.9374 1.34389 28.6791 0.190662 31.0249 0.190662C33.4069 0.190662 34.8997 1.34389 35.9632 3.81352C36.8881 1.34389 38.9831 0.190662 41.2246 0.190662C42.824 0.190662 44.5634 0.849818 45.6292 2.33167C46.8392 3.98088 46.5903 6.36663 46.5903 8.46722L46.5861 20.8176C46.5861 21.2072 46.258 21.5199 45.8507 21.5199H42.0482C41.668 21.4951 41.3673 21.1935 41.3673 20.8176L41.365 10.4405C41.365 9.61816 41.4373 7.55874 41.2588 6.77683C40.9737 5.45815 40.123 5.08912 39.0215 5.08912C38.0985 5.08912 37.1393 5.70519 36.748 6.69296C36.3567 7.68302 36.3929 9.32804 36.3929 10.4405V20.8153C36.3929 21.205 36.0648 21.5176 35.6575 21.5176H31.8573C31.4752 21.4928 31.1741 21.1912 31.1741 20.8153L31.1695 10.4382C31.1695 8.2564 31.5224 5.04604 28.8237 5.04604C26.0867 5.04604 26.1951 8.17481 26.1951 10.4382L26.1929 20.8131C26.1864 21.2095 25.8583 21.5221 25.451 21.5221ZM95.848 4.18484C93.0405 4.18484 92.862 8.01393 92.862 10.402C92.862 12.79 92.8258 17.897 95.8118 17.897C98.7617 17.897 98.904 13.7778 98.904 11.2674C98.904 9.62045 98.8317 7.64452 98.3339 6.07918C97.9064 4.7197 97.0538 4.18484 95.848 4.18484ZM95.8118 0.190662C101.463 0.190662 104.519 5.05061 104.519 11.2266C104.519 17.1971 101.144 21.9323 95.8118 21.9323C90.2695 21.9323 87.2473 17.0724 87.2473 11.0207C87.2451 4.92595 90.3034 0.190662 95.8118 0.190662ZM111.846 21.5221H108.052C107.672 21.4974 107.369 21.1958 107.369 20.8199L107.364 1.24401C107.396 0.883743 107.711 0.605064 108.095 0.605064L111.626 0.602778C111.959 0.621077 112.232 0.84753 112.302 1.15099V4.14405H112.375C113.441 1.46627 114.933 0.190662 117.562 0.190662C119.268 0.190662 120.937 0.809022 122.005 2.49712C123 4.06017 123 6.69525 123 8.59188V20.9038C122.957 21.2503 122.647 21.5199 122.27 21.5199H118.453C118.1 21.4974 117.815 21.2366 117.777 20.9038V10.2796C117.777 8.1386 118.026 5.00982 115.395 5.00982C114.47 5.00982 113.617 5.6259 113.192 6.57288C112.66 7.7669 112.588 8.96092 112.588 10.2796V20.8176C112.578 21.2095 112.25 21.5221 111.846 21.5221ZM64.959 21.4722C64.7077 21.699 64.3435 21.7147 64.0584 21.5606C62.7939 20.5092 62.5678 20.0224 61.8755 19.0209C59.7878 21.1527 58.3083 21.7917 55.6005 21.7917C52.3952 21.7917 49.9021 19.8116 49.9021 15.8486C49.9021 12.7538 51.5784 10.649 53.9626 9.61816C56.0279 8.70968 58.9146 8.54423 61.1222 8.29719V7.80083C61.1222 6.89235 61.1945 5.8207 60.6586 5.03689C60.1946 4.33466 59.3059 4.04454 58.5206 4.04454C57.0708 4.04454 55.779 4.78985 55.46 6.33499C55.3946 6.67962 55.1433 7.0193 54.7996 7.0376L51.1102 6.63654C50.7981 6.56411 50.4517 6.31707 50.5423 5.839C51.3907 1.35495 55.433 4.57764e-05 59.0547 4.57764e-05C60.9072 4.57764e-05 63.328 0.494124 64.7892 1.89897C66.6417 3.63205 66.4632 5.94308 66.4632 8.46036V14.4011C66.4632 16.1887 67.205 16.9725 67.8997 17.9332C68.144 18.2798 68.1981 18.6923 67.8883 18.9462C67.1103 19.5984 65.7301 20.7993 64.97 21.4768L64.959 21.4722ZM61.1222 12.1762C61.1222 13.6623 61.1584 14.8994 60.4097 16.2203C59.8034 17.2943 58.8419 17.9538 57.7742 17.9538C56.3153 17.9538 55.46 16.8391 55.46 15.1872C55.46 11.9406 58.3692 11.3512 61.1222 11.3512V12.1762ZM15.0565 21.4722C14.8056 21.699 14.4414 21.7147 14.1563 21.5606C12.8918 20.5092 12.6657 20.0224 11.9734 19.0209C9.88298 21.1527 8.40386 21.7917 5.69837 21.7917C2.49044 21.7917 0 19.8116 0 15.8486C0 12.7538 1.674 10.649 4.06053 9.61816C6.12581 8.70968 9.00982 8.54423 11.2178 8.29719V7.80083C11.2178 6.89235 11.2902 5.8207 10.7542 5.03689C10.2903 4.33466 9.40149 4.04454 8.61854 4.04454C7.16645 4.04454 5.8746 4.78985 5.55792 6.33499C5.49245 6.67962 5.24123 7.0193 4.89753 7.0376L1.20811 6.63654C0.895615 6.56411 0.549625 6.31707 0.637931 5.839C1.48635 1.35495 5.52861 0.00233773 9.15256 0.00233773C11.0051 0.00233773 13.4255 0.49641 14.8871 1.90125C16.7396 3.63433 16.5611 5.94536 16.5611 8.46264V14.4034C16.5611 16.191 17.3029 16.9748 17.9972 17.9355C18.2416 18.282 18.296 18.6945 17.9861 18.9484C17.2078 19.6007 15.8257 20.8016 15.0656 21.4791L15.0565 21.4722ZM11.2178 12.1762C11.2178 13.6623 11.254 14.8994 10.5053 16.2203C9.90125 17.2943 8.93979 17.9538 7.86984 17.9538C6.4109 17.9538 5.55563 16.8391 5.55563 15.1872C5.55563 11.9406 8.46476 11.3512 11.2178 11.3512V12.1762Z" fill="#343434"/>
</svg>

<svg width="123" height="38" fill="none" xmlns="http://www.w3.org/2000/svg"><path fill-rule="evenodd" clip-rule="evenodd" d="M76.203 29.175C68.409 34.938 57.106 38 47.377 38c-13.64 0-25.92-5.051-35.214-13.453-.728-.66-.08-1.562.797-1.05 10.027 5.844 22.425 9.363 35.234 9.363 8.638 0 18.135-1.797 26.874-5.509 1.32-.56 2.425.868 1.135 1.824Z" fill="#fff"/><path fill-rule="evenodd" clip-rule="evenodd" d="M79.28 25.634c-.916-1.171-6.042-.555-8.345-.278-.696.086-.805-.526-.176-.97 4.09-2.878 10.792-2.046 11.573-1.083.785.972-.206 7.703-4.04 10.916-.59.494-1.15.231-.89-.421.86-2.16 2.794-6.99 1.878-8.164ZM71.096 4.056V1.262a.69.69 0 0 1 .708-.71L84.318.552c.4 0 .722.292.722.704v2.4c-.005.401-.344.926-.944 1.76l-6.48 9.27c2.404-.057 4.951.305 7.136 1.533.493.279.627.689.665 1.092v2.984c0 .41-.45.889-.923.64-3.85-2.022-8.962-2.242-13.22.024-.434.231-.89-.238-.89-.648v-2.836c0-.454.008-1.23.465-1.922l7.51-10.79h-6.54c-.4 0-.719-.287-.723-.706ZM25.45 21.522h-3.805a.72.72 0 0 1-.68-.643l.004-19.57c0-.391.328-.704.735-.704l3.547-.002c.371.018.667.3.69.657v2.554h.072C26.937 1.344 28.68.19 31.024.19c2.383 0 3.876 1.153 4.94 3.623.924-2.47 3.02-3.623 5.26-3.623 1.6 0 3.34.659 4.405 2.14 1.21 1.65.961 4.036.961 6.136l-.004 12.35c0 .39-.328.703-.735.703h-3.803a.713.713 0 0 1-.68-.702l-.003-10.378c0-.822.072-2.881-.106-3.663-.285-1.319-1.136-1.688-2.237-1.688-.923 0-1.883.616-2.274 1.604-.391.99-.355 2.635-.355 3.748v10.374c0 .39-.328.703-.736.703h-3.8a.714.714 0 0 1-.683-.703l-.005-10.377c0-2.182.353-5.392-2.345-5.392-2.737 0-2.629 3.129-2.629 5.392l-.002 10.375a.729.729 0 0 1-.742.71ZM95.848 4.185c-2.808 0-2.986 3.829-2.986 6.217 0 2.388-.036 7.495 2.95 7.495 2.95 0 3.092-4.12 3.092-6.63 0-1.647-.072-3.622-.57-5.188-.428-1.36-1.28-1.894-2.486-1.894ZM95.812.19c5.651 0 8.707 4.86 8.707 11.036 0 5.97-3.375 10.705-8.707 10.705-5.543 0-8.565-4.86-8.565-10.911C87.245 4.926 90.303.19 95.812.19Zm16.034 21.331h-3.794a.715.715 0 0 1-.683-.702l-.005-19.576c.032-.36.347-.639.731-.639l3.531-.002a.725.725 0 0 1 .676.548v2.993h.073c1.066-2.678 2.558-3.953 5.187-3.953 1.706 0 3.375.618 4.443 2.306C123 4.06 123 6.695 123 8.592v12.312a.723.723 0 0 1-.73.616h-3.817a.714.714 0 0 1-.676-.616V10.28c0-2.141.249-5.27-2.382-5.27-.925 0-1.778.616-2.203 1.563-.532 1.194-.604 2.388-.604 3.707v10.538a.732.732 0 0 1-.742.704Zm-46.887-.05c-.251.227-.615.243-.9.089-1.265-1.052-1.491-1.539-2.183-2.54-2.088 2.132-3.568 2.77-6.276 2.77-3.205 0-5.698-1.98-5.698-5.942 0-3.095 1.676-5.2 4.06-6.23 2.066-.91 4.953-1.075 7.16-1.322v-.496c0-.909.072-1.98-.463-2.764-.464-.702-1.353-.992-2.138-.992-1.45 0-2.742.745-3.061 2.29-.065.345-.317.684-.66.703l-3.69-.401c-.312-.073-.658-.32-.568-.798C51.391 1.355 55.433 0 59.055 0c1.852 0 4.273.494 5.734 1.899 1.853 1.733 1.674 4.044 1.674 6.561v5.941c0 1.788.742 2.572 1.437 3.532.244.347.298.76-.012 1.013-.778.652-2.158 1.853-2.918 2.53l-.011-.004Zm-3.837-9.296c0 1.486.036 2.723-.712 4.044-.607 1.074-1.568 1.734-2.636 1.734-1.459 0-2.314-1.115-2.314-2.767 0-3.246 2.91-3.836 5.662-3.836v.825Zm-46.066 9.296c-.25.227-.615.243-.9.089-1.264-1.052-1.49-1.539-2.183-2.54-2.09 2.132-3.57 2.77-6.275 2.77C2.49 21.792 0 19.812 0 15.85c0-3.095 1.674-5.2 4.06-6.23 2.066-.91 4.95-1.075 7.158-1.322v-.496c0-.909.072-1.98-.464-2.764-.464-.702-1.353-.992-2.135-.992-1.453 0-2.744.745-3.061 2.29-.066.345-.317.684-.66.703l-3.69-.401c-.312-.073-.658-.32-.57-.798C1.486 1.355 5.528.002 9.153.002c1.852 0 4.272.494 5.734 1.9 1.853 1.732 1.674 4.043 1.674 6.56v5.941c0 1.788.742 2.572 1.436 3.533.245.346.299.759-.01 1.012-.78.653-2.161 1.854-2.921 2.531l-.01-.007Zm-3.838-9.296c0 1.486.036 2.723-.713 4.044-.604 1.074-1.565 1.734-2.635 1.734-1.46 0-2.314-1.115-2.314-2.767 0-3.246 2.909-3.836 5.662-3.836v.825Z" fill="#fff"/></svg>
